icon-themes/breeze_svg/cmd/lc_mirrorvert.svg

<svg viewBox="0 0 24 24" xmlns="http://www.w3.org/2000/svg"><path d="m7 4v3h-1v1h1v3h3v2h-3v3h-1v1h1v3h10v-3h1v-1h-1v-3h-3v-2h3v-3h1v-1h-1v-3zm1 1h8v5h-8zm-4 2v1h1v-1zm15 0v1h1v-1zm-8 4h2v2h-2zm-3 3h8v5h-8zm1 1v3h6v-3zm-5 1v1h1v-1zm15 0v1h1v-1z" fill="#4d4d4d"/></svg>

<svg xmlns="http://www.w3.org/2000/svg" viewBox="0 0 24 24">
 <path 
     style="fill:#4d4d4d" 
     d="M 7 4 L 7 7 L 6 7 L 6 8 L 7 8 L 7 11 L 10 11 L 10 13 L 7 13 L 7 16 L 6 16 L 6 17 L 7 17 L 7 20 L 17 20 L 17 17 L 18 17 L 18 16 L 17 16 L 17 13 L 14 13 L 14 11 L 17 11 L 17 8 L 18 8 L 18 7 L 17 7 L 17 4 L 7 4 z M 8 5 L 16 5 L 16 10 L 8 10 L 8 5 z M 4 7 L 4 8 L 5 8 L 5 7 L 4 7 z M 19 7 L 19 8 L 20 8 L 20 7 L 19 7 z M 11 11 L 13 11 L 13 13 L 11 13 L 11 11 z M 8 14 L 16 14 L 16 19 L 8 19 L 8 14 z M 9 15 L 9 18 L 15 18 L 15 15 L 9 15 z M 4 16 L 4 17 L 5 17 L 5 16 L 4 16 z M 19 16 L 19 17 L 20 17 L 20 16 L 19 16 z "
     />
 </svg>
